img/icons/tooltip/Lock_Open.svg

<svg width="20" height="20" viewBox="0 0 20 20" fill="none" xmlns="http://www.w3.org/2000/svg">
<path d="M7.50016 7.5V5.1C7.50016 3.66406 8.58351 2.5 9.9199 2.5C10.6066 2.5 11.2261 2.80732 11.6665 3.30094M3.3335 14.8333V10.1666C3.3335 9.2332 3.3335 8.76655 3.51515 8.41003C3.67494 8.09643 3.92972 7.84144 4.24333 7.68166C4.59985 7.5 5.0669 7.5 6.00033 7.5H14.0003C14.9337 7.5 15.4001 7.5 15.7567 7.68166C16.0703 7.84144 16.3256 8.09643 16.4854 8.41003C16.667 8.76655 16.6668 9.2332 16.6668 10.1666V14.8333C16.6668 15.7667 16.667 16.2335 16.4854 16.59C16.3256 16.9036 16.0703 17.1585 15.7567 17.3183C15.4001 17.5 14.9337 17.5 14.0003 17.5H6.00033C5.0669 17.5 4.59985 17.5 4.24333 17.3183C3.92972 17.1585 3.67494 16.9036 3.51515 16.59C3.3335 16.2335 3.3335 15.7667 3.3335 14.8333Z" stroke="#8C8D92" stroke-width="2" stroke-linecap="round" stroke-linejoin="round"/>
</svg>

<svg width="20" height="20" fill="none" xmlns="http://www.w3.org/2000/svg"><path d="M7.5 7.5V5.1c0-1.436 1.084-2.6 2.42-2.6.687 0 1.306.307 1.746.8M3.334 14.834v-4.666c0-.934 0-1.4.181-1.757.16-.314.415-.569.728-.728C4.6 7.5 5.067 7.5 6 7.5h8c.934 0 1.4 0 1.757.182.313.16.569.414.728.728.182.357.182.823.182 1.757v4.666c0 .934 0 1.4-.182 1.757-.16.314-.415.569-.728.728-.357.182-.823.182-1.757.182H6c-.933 0-1.4 0-1.757-.182a1.666 1.666 0 0 1-.728-.728c-.182-.357-.182-.823-.182-1.757Z" stroke="#8C8D92" stroke-width="2" stroke-linecap="round" stroke-linejoin="round"/></svg>
